X: 392
M: 2/4
L: 1/8
K: Bb
V: 1
d/c/ |\
cc (c/B/A/).B/ | cAFA | (Bd).g.^f | g2 ~ga/b/ |\
fbdf | Bdfd | ecdB | c/B/A/G/ F/E/D/!d.C.!c/ |]
V: 2 clef=bass middle=d
z | Bbc'b | BbBz | abc'=e' | f'c'af | zbaf | =efg_e | defF | Bb B :|
z | FAcf | afcA |GBdD | GgGz | Bbfd | BbBz | Acd=e | fFz2 |]


